docs/img/about/ok.svg

<svg width="25" height="40" viewBox="0 0 25 40" fill="none" xmlns="http://www.w3.org/2000/svg">
<path fill-rule="evenodd" clip-rule="evenodd" d="M12.0658 20.2343C17.7168 20.2578 22.3403 15.7751 22.364 10.246C22.3957 4.592 17.8512 0.0156593 12.1844 4.04114e-05C6.53337 -0.0155785 1.94144 4.49828 1.91773 10.0977C1.87822 15.6346 6.47014 20.2187 12.0658 20.2343ZM12.1448 5.1699C14.919 5.1699 17.1398 7.35654 17.1477 10.1133C17.1557 12.8622 14.9427 15.0645 12.1686 15.0723C9.38653 15.0801 7.14984 12.9091 7.12613 10.1679C7.11032 7.39559 9.34701 5.1699 12.1448 5.1699Z" fill="#F2720C"/>
<path fill-rule="evenodd" clip-rule="evenodd" d="M23.6602 24.2093C24.4742 23.3815 24.4821 22.3428 23.8183 21.2729C23.2413 20.3358 22.2297 19.9453 21.1469 20.2186C20.5936 20.3592 20.1115 20.6404 19.661 20.9762C15.1323 23.9906 8.92809 23.9047 4.4231 20.8356C4.2018 20.6872 3.9726 20.5388 3.7276 20.4295C2.47884 19.8438 1.27751 20.1171 0.558298 21.1324C-0.279472 22.3194 -0.176727 23.4752 0.88234 24.4826C1.15896 24.7403 1.4672 24.9668 1.76753 25.2011C4.186 27.0753 7.01544 27.8329 10.1531 28.1609C9.93183 28.3951 9.78957 28.5591 9.6394 28.7075C7.33949 30.9879 5.03957 33.2682 2.73176 35.5408C2.25755 36.0094 1.90979 36.5326 1.87818 37.2198C1.83076 38.2351 2.47094 39.2425 3.46678 39.7188C4.4073 40.1718 5.37152 40.0312 6.18558 39.2347C7.99548 37.4775 9.78957 35.7048 11.5599 33.9008C12.0025 33.4557 12.2396 33.3541 12.7455 33.8696C14.4684 35.6501 16.2625 37.3682 18.0171 39.1175C18.4755 39.5783 18.9892 39.8985 19.6531 39.9453C20.6964 40.0156 21.7633 39.3518 22.2455 38.3522C22.6802 37.4307 22.5142 36.4545 21.7238 35.6657C19.4002 33.3463 17.0608 31.0425 14.7292 28.7309C14.5633 28.5669 14.4447 28.4342 14.1839 28.153C15.899 27.95 17.6377 27.6454 19.2105 27.0363C20.9019 26.4037 22.4035 25.4822 23.6602 24.2093Z" fill="#F2720C"/>
</svg>

<svg width="25" height="40" fill="none" xmlns="http://www.w3.org/2000/svg"><path fill-rule="evenodd" clip-rule="evenodd" d="M12.066 20.234c5.65.024 10.274-4.459 10.298-9.988A10.177 10.177 0 0 0 12.184 0C6.534-.016 1.941 4.498 1.918 10.098c-.04 5.537 4.552 10.12 10.148 10.136zm.079-15.064c2.774 0 4.995 2.187 5.003 4.943.008 2.75-2.205 4.952-4.98 4.96-2.781.007-5.018-2.164-5.042-4.905C7.11 7.396 9.347 5.17 12.145 5.17z" fill="#F2720C"/><path fill-rule="evenodd" clip-rule="evenodd" d="M23.66 24.21c.814-.829.822-1.867.158-2.937-.577-.937-1.588-1.328-2.671-1.054-.553.14-1.035.421-1.486.757-4.529 3.015-10.733 2.929-15.238-.14a4.738 4.738 0 0 0-.695-.406c-1.25-.586-2.45-.313-3.17.702-.837 1.187-.735 2.343.324 3.35.277.258.585.485.886.72 2.418 1.873 5.247 2.63 8.385 2.959-.221.234-.363.398-.514.546-2.3 2.28-4.6 4.561-6.907 6.834-.474.468-.822.992-.854 1.679-.047 1.015.593 2.023 1.589 2.499.94.453 1.905.312 2.719-.484A312.84 312.84 0 0 0 11.56 33.9c.442-.445.68-.547 1.185-.031 1.723 1.78 3.518 3.498 5.272 5.248.459.46.972.78 1.636.827 1.043.07 2.11-.593 2.593-1.593.434-.921.268-1.897-.522-2.686-2.324-2.32-4.663-4.623-6.995-6.935-.166-.164-.284-.297-.545-.578 1.715-.203 3.454-.508 5.027-1.117 1.69-.632 3.193-1.554 4.45-2.827z" fill="#F2720C"/></svg>
